X: 1
T: Kyrkl\aat av Arne Mod\'en   [A]
C: Arne Mod\'en
S: https://www.youtube.com/watch?v=V24xwpkzQbg (Arne playing)
Z: 2017 John Chambers <jc:trillian.mit.edu>
L: 1/16
M: 2/4
K: A
E2 |\
A6 EA | B6 Bc |\
d2-d2 f3d | d2cB A2AB |\
c2-ce d3c | cBBG E2GA |
B2-Bd c2BG | A6 :|\
|: cd |\
e2-ea f3e | eddB G2Bc |\
d2{c}df e3d |
dcec A2cd |\
e2ea f3e | eddB G2GA |\
B2-Bd c2BG | A6 |]

%%sep 1 1 500
%%sep 1 1 500

